X:1
T: Miss Johnston of Hillton
C:Niel Gow
R:Reel
Q: 232
K:Em
M:4/4
L:1/8
|:f|eE EF B2 B^c|dB Ad FD AF|EF GA B2 Bg|fd Bd e2 ef|
eE EF B2 B^c|dB Ad FD AF|EF GA B2 Bg|fd Bd e2 ef|
eB ef gb eg|fa da fd ad|eB ef gb eg|f^d Bd e2 ef|
eB ge gb eg|fd ad fa df|gb eg bg eg|f^d Bd e2 e:|
